;FLAVOR:Marlin
;TIME:2913
;Filament used: 2.74036m
;Layer height: 0.2
;MINX:45.1
;MINY:101.1
;MINZ:0.2
;MAXX:164.9
;MAXY:195.9
;MAXZ:5
;Generated with Cura_SteamEngine 4.13.0
M82 ;absolute extrusion mode
; -- START GCODE --
M104 S220
G28 ; Zero-ing position
G29 ; Auto bed-leveling
G0 X4 Y297 Z15 F4000 ; Fast move to BQ's start position
G90 ; Set to Absolute Positioning
G92 E0 ; Reset extruder 0
G1 F1800 ; Set default feedrate
M109 S220 ; Makes sure the temperature is correct before printing
; -- end of START GCODE --
G92 E0
G92 E0
G1 F1500 E-6.5
;LAYER_COUNT:25
;LAYER:0
M107
G0 F3600 X52.052 Y102.385 Z0.2
;TYPE:SKIRT
G1 F1500 E0
G1 F1800 X52.553 Y102.149 E0.01842
G1 X53.53 Y101.77 E0.05327
G1 X54.024 Y101.618 E0.07046
G1 X54.825 Y101.412 E0.09797
G1 X55.334 Y101.311 E0.11523
G1 X55.858 Y101.226 E0.13289
G1 X56.38 Y101.161 E0.15038
G1 X57.101 Y101.115 E0.17441
G1 X57.417 Y101.105 E0.18493
G1 X57.948 Y101.1 E0.20259
G1 X151.657 Y101.1 E3.31937
G1 X152.915 Y101.12 E3.36121
G1 X153.45 Y101.147 E3.37903
G1 X154.084 Y101.217 E3.40024
G1 X154.693 Y101.311 E3.42074
G1 X155.228 Y101.414 E3.43886
G1 X155.755 Y101.552 E3.45698
G1 X156.255 Y101.703 E3.47435
G1 X156.756 Y101.874 E3.49196
G1 X157.23 Y102.055 E3.50883
G1 X158.159 Y102.485 E3.54288
G1 X158.624 Y102.741 E3.56054
G1 X159.07 Y103.008 E3.57783
G1 X159.742 Y103.461 E3.60478
G1 X160.057 Y103.695 E3.61783
G1 X160.478 Y104.032 E3.63577
G1 X160.704 Y104.227 E3.6457
G1 X161.096 Y104.591 E3.66349
G1 X161.493 Y104.987 E3.68214
G1 X162.168 Y105.761 E3.7163
G1 X162.457 Y106.143 E3.73223
G1 X162.746 Y106.553 E3.74891
G1 X162.955 Y106.872 E3.7616
G1 X163.218 Y107.306 E3.77847
G1 X163.374 Y107.584 E3.78908
G1 X163.613 Y108.047 E3.80641
G1 X163.848 Y108.545 E3.82472
G1 X164.227 Y109.522 E3.85958
G1 X164.38 Y110.018 E3.87684
G1 X164.514 Y110.51 E3.8938
G1 X164.589 Y110.83 E3.90473
G1 X164.688 Y111.332 E3.92175
G1 X164.773 Y111.855 E3.93937
G1 X164.864 Y112.693 E3.96741
G1 X164.896 Y113.42 E3.99161
G1 X164.9 Y113.788 E4.00385
G1 X164.899 Y182.751 E6.29757
G1 X164.88 Y183.912 E6.33619
G1 X164.853 Y184.45 E6.35411
G1 X164.783 Y185.084 E6.37532
G1 X164.689 Y185.693 E6.39582
G1 X164.586 Y186.228 E6.41394
G1 X164.448 Y186.755 E6.43206
G1 X164.297 Y187.255 E6.44943
G1 X164.126 Y187.756 E6.46704
G1 X163.945 Y188.23 E6.48391
G1 X163.517 Y189.154 E6.51778
G1 X163.262 Y189.618 E6.53539
G1 X162.993 Y190.069 E6.55286
G1 X162.538 Y190.744 E6.57993
G1 X162.303 Y191.06 E6.59303
G1 X161.968 Y191.478 E6.61085
G1 X161.773 Y191.704 E6.62078
G1 X161.409 Y192.096 E6.63857
G1 X161.013 Y192.493 E6.65722
G1 X160.239 Y193.168 E6.69138
G1 X159.857 Y193.457 E6.70731
G1 X159.448 Y193.746 E6.72397
G1 X159.126 Y193.957 E6.73677
G1 X158.686 Y194.224 E6.75389
G1 X158.411 Y194.378 E6.76437
G1 X157.948 Y194.615 E6.78167
G1 X157.447 Y194.851 E6.80009
G1 X156.47 Y195.23 E6.83494
G1 X155.976 Y195.382 E6.85214
G1 X155.175 Y195.588 E6.87964
G1 X154.666 Y195.689 E6.8969
G1 X154.142 Y195.774 E6.91456
G1 X153.62 Y195.839 E6.93206
G1 X152.899 Y195.885 E6.95608
G1 X152.583 Y195.895 E6.9666
G1 X151.982 Y195.9 E6.98659
G1 X58.217 Y195.898 E10.10523
G1 X57.025 Y195.877 E10.14488
G1 X56.463 Y195.846 E10.1636
G1 X55.914 Y195.783 E10.18198
G1 X55.31 Y195.69 E10.2023
G1 X54.772 Y195.586 E10.22053
G1 X54.245 Y195.448 E10.23865
G1 X53.745 Y195.297 E10.25602
G1 X53.266 Y195.134 E10.27285
G1 X52.806 Y194.96 E10.28921
G1 X51.862 Y194.526 E10.32376
G1 X51.383 Y194.263 E10.34194
G1 X50.93 Y193.992 E10.3595
G1 X50.255 Y193.537 E10.38657
G1 X49.935 Y193.299 E10.39984
G1 X49.51 Y192.958 E10.41796
G1 X49.288 Y192.766 E10.42772
G1 X48.903 Y192.408 E10.44521
G1 X48.505 Y192.011 E10.4639
G1 X47.83 Y191.237 E10.49806
G1 X47.541 Y190.855 E10.51399
G1 X47.246 Y190.437 E10.53101
G1 X47.037 Y190.117 E10.54372
G1 X46.776 Y189.686 E10.56048
G1 X46.622 Y189.411 E10.57096
G1 X46.385 Y188.948 E10.58826
G1 X46.149 Y188.447 E10.60668
G1 X45.77 Y187.47 E10.64154
G1 X45.618 Y186.976 E10.65873
G1 X45.412 Y186.175 E10.68624
G1 X45.311 Y185.666 E10.7035
G1 X45.226 Y185.142 E10.72115
G1 X45.136 Y184.291 E10.74961
G1 X45.103 Y183.519 E10.77531
G1 X45.1 Y183.113 E10.78882
G1 X45.101 Y114.219 E13.08024
G1 X45.12 Y113.085 E13.11796
G1 X45.147 Y112.55 E13.13578
G1 X45.216 Y111.922 E13.15679
G1 X45.31 Y111.31 E13.17739
G1 X45.428 Y110.706 E13.19786
G1 X45.553 Y110.24 E13.2139
G1 X45.704 Y109.741 E13.23124
G1 X45.874 Y109.244 E13.24871
G1 X46.055 Y108.77 E13.26559
G1 X46.483 Y107.846 E13.29946
G1 X46.738 Y107.382 E13.31707
G1 X47.007 Y106.931 E13.33454
G1 X47.462 Y106.256 E13.36161
G1 X47.697 Y105.94 E13.37471
G1 X48.032 Y105.522 E13.39252
G1 X48.227 Y105.296 E13.40245
G1 X48.577 Y104.918 E13.41959
G1 X48.962 Y104.53 E13.43777
G1 X49.744 Y103.845 E13.47234
G1 X50.137 Y103.547 E13.48875
G1 X50.552 Y103.254 E13.50564
G1 X50.874 Y103.043 E13.51845
G1 X51.314 Y102.776 E13.53557
G1 X51.589 Y102.622 E13.54605
G1 X52.052 Y102.385 E13.56335
G0 F3600 X52.222 Y102.746
G1 F1800 X52.723 Y102.51 E13.58177
G1 X53.647 Y102.153 E13.61472
G1 X54.141 Y102.001 E13.63191
G1 X54.917 Y101.802 E13.65855
G1 X55.398 Y101.706 E13.67486
G1 X55.922 Y101.621 E13.69252
G1 X56.419 Y101.559 E13.70918
G1 X57.122 Y101.515 E13.73261
G1 X57.421 Y101.505 E13.74256
G1 X57.952 Y101.5 E13.76022
G1 X151.657 Y101.5 E16.87686
G1 X152.908 Y101.52 E16.91847
G1 X153.423 Y101.546 E16.93562
G1 X154.023 Y101.612 E16.9557
G1 X154.632 Y101.706 E16.9762
G1 X155.138 Y101.803 E16.99333
G1 X155.64 Y101.935 E17.0106
G1 X156.14 Y102.086 E17.02797
G1 X156.613 Y102.248 E17.0446
G1 X157.087 Y102.429 E17.06147
G1 X157.966 Y102.836 E17.09369
G1 X158.431 Y103.092 E17.11135
G1 X159.127 Y103.521 E17.13854
G1 X159.818 Y104.016 E17.16681
G1 X160.217 Y104.335 E17.1838
G1 X160.443 Y104.53 E17.19373
G1 X160.814 Y104.874 E17.21056
G1 X161.211 Y105.27 E17.22921
G1 X161.849 Y106.003 E17.26153
G1 X162.411 Y106.772 E17.29321
G1 X162.87 Y107.501 E17.32186
G1 X163.252 Y108.218 E17.34888
G1 X163.487 Y108.716 E17.3672
G1 X163.845 Y109.64 E17.40015
G1 X163.998 Y110.136 E17.41742
G1 X164.199 Y110.922 E17.4444
G1 X164.293 Y111.396 E17.46047
G1 X164.378 Y111.919 E17.4781
G1 X164.464 Y112.715 E17.50473
G1 X164.496 Y113.424 E17.52833
G1 X164.5 Y113.792 E17.54057
G1 X164.499 Y182.745 E19.83396
G1 X164.48 Y183.906 E19.87258
G1 X164.454 Y184.423 E19.8898
G1 X164.388 Y185.023 E19.90987
G1 X164.294 Y185.632 E19.93037
G1 X164.197 Y186.138 E19.9475
G1 X164.065 Y186.64 E19.96477
G1 X163.914 Y187.14 E19.98214
G1 X163.752 Y187.613 E19.99877
G1 X163.571 Y188.087 E20.01564
G1 X163.167 Y188.961 E20.04767
G1 X162.912 Y189.425 E20.06528
G1 X162.48 Y190.126 E20.09267
G1 X161.982 Y190.821 E20.1211
G1 X161.665 Y191.217 E20.13798
G1 X161.47 Y191.443 E20.1479
G1 X161.126 Y191.814 E20.16473
G1 X160.73 Y192.211 E20.18338
G1 X159.997 Y192.849 E20.2157
G1 X159.229 Y193.411 E20.24735
G1 X158.49 Y193.875 E20.27638
G1 X157.778 Y194.254 E20.3032
G1 X157.277 Y194.49 E20.32162
G1 X156.353 Y194.847 E20.35457
G1 X155.859 Y194.999 E20.37176
G1 X155.083 Y195.198 E20.39841
G1 X154.602 Y195.294 E20.41472
G1 X154.078 Y195.379 E20.43238
G1 X153.581 Y195.441 E20.44903
G1 X152.878 Y195.485 E20.47246
G1 X152.579 Y195.495 E20.48241
G1 X151.982 Y195.5 E20.50227
G1 X58.224 Y195.498 E23.62067
G1 X57.032 Y195.477 E23.66033
G1 X56.494 Y195.448 E23.67825
G1 X55.975 Y195.387 E23.69563
G1 X55.371 Y195.294 E23.71595
G1 X54.862 Y195.197 E23.73319
G1 X54.36 Y195.065 E23.75045
G1 X53.86 Y194.914 E23.76782
G1 X52.947 Y194.586 E23.80009
G1 X52.055 Y194.175 E23.83275
G1 X51.576 Y193.912 E23.85093
G1 X50.873 Y193.479 E23.87839
G1 X50.174 Y192.978 E23.90699
G1 X49.772 Y192.656 E23.92413
G1 X49.185 Y192.125 E23.95045
G1 X48.787 Y191.728 E23.96915
G1 X48.149 Y190.995 E24.00147
G1 X47.581 Y190.218 E24.03348
G1 X47.125 Y189.49 E24.06205
G1 X46.746 Y188.778 E24.08888
G1 X46.51 Y188.277 E24.1073
G1 X46.153 Y187.353 E24.14025
G1 X46.001 Y186.859 E24.15744
G1 X45.802 Y186.083 E24.18408
G1 X45.706 Y185.602 E24.2004
G1 X45.621 Y185.078 E24.21805
G1 X45.535 Y184.271 E24.24505
G1 X45.503 Y183.516 E24.27018
G1 X45.5 Y183.11 E24.28368
G1 X45.501 Y114.226 E26.57477
G1 X45.52 Y113.092 E26.6125
G1 X45.546 Y112.577 E26.62965
G1 X45.611 Y111.982 E26.64956
G1 X45.705 Y111.37 E26.67015
G1 X45.817 Y110.799 E26.6895
G1 X45.936 Y110.356 E26.70476
G1 X46.087 Y109.857 E26.7221
G1 X46.248 Y109.387 E26.73862
G1 X46.429 Y108.913 E26.7555
G1 X46.833 Y108.039 E26.78752
G1 X47.088 Y107.575 E26.80513
G1 X47.52 Y106.874 E26.83252
G1 X48.018 Y106.179 E26.86096
G1 X48.335 Y105.783 E26.87783
G1 X48.861 Y105.199 E26.90397
G1 X49.246 Y104.811 E26.92215
G1 X49.986 Y104.164 E26.95484
G1 X50.771 Y103.589 E26.98721
G1 X51.51 Y103.125 E27.01623
G1 X52.222 Y102.746 E27.04306
G0 F3600 X52.392 Y103.108
G1 F1800 X52.893 Y102.872 E27.06148
G1 X53.765 Y102.535 E27.09257
G1 X54.259 Y102.383 E27.10976
G1 X55.008 Y102.191 E27.13548
G1 X55.462 Y102.101 E27.15087
G1 X55.986 Y102.016 E27.16853
G1 X56.76 Y101.934 E27.19442
G1 X57.425 Y101.905 E27.21655
G1 X57.956 Y101.9 E27.23422
G1 X151.657 Y101.9 E30.35072
G1 X152.902 Y101.92 E30.39214
G1 X153.397 Y101.945 E30.40862
G1 X153.962 Y102.007 E30.42753
G1 X154.571 Y102.101 E30.44802
G1 X155.1 Y102.205 E30.46596
G1 X155.524 Y102.318 E30.48055
G1 X156.024 Y102.469 E30.49792
G1 X156.47 Y102.621 E30.51359
G1 X156.944 Y102.802 E30.53047
G1 X157.773 Y103.186 E30.56086
G1 X158.238 Y103.442 E30.57851
G1 X158.91 Y103.857 E30.60478
G1 X159.58 Y104.337 E30.63219
G1 X160.182 Y104.833 E30.65814
G1 X160.531 Y105.157 E30.67398
G1 X160.928 Y105.553 E30.69263
G1 X161.53 Y106.244 E30.72311
G1 X162.077 Y106.991 E30.7539
G1 X162.521 Y107.697 E30.78164
G1 X162.89 Y108.388 E30.80769
G1 X163.125 Y108.886 E30.82601
G1 X163.463 Y109.758 E30.85712
G1 X163.616 Y110.254 E30.87438
G1 X163.81 Y111.013 E30.90044
G1 X163.899 Y111.46 E30.91559
G1 X163.984 Y111.983 E30.93322
G1 X164.065 Y112.736 E30.95841
G1 X164.096 Y113.428 E30.98145
G1 X164.1 Y113.796 E30.99369
G1 X164.099 Y182.738 E33.28671
G1 X164.08 Y183.899 E33.32533
G1 X164.055 Y184.397 E33.34191
G1 X163.993 Y184.962 E33.36082
G1 X163.899 Y185.571 E33.38131
G1 X163.795 Y186.1 E33.39924
G1 X163.682 Y186.524 E33.41384
G1 X163.531 Y187.024 E33.43121
G1 X163.379 Y187.47 E33.44688
G1 X163.198 Y187.944 E33.46376
G1 X162.816 Y188.769 E33.494
G1 X162.561 Y189.233 E33.5116
G1 X162.144 Y189.909 E33.53802
G1 X161.661 Y190.583 E33.5656
G1 X161.167 Y191.182 E33.59143
G1 X160.843 Y191.531 E33.60726
G1 X160.447 Y191.928 E33.62591
G1 X159.756 Y192.53 E33.6564
G1 X159.009 Y193.076 E33.68717
G1 X158.295 Y193.526 E33.71524
G1 X157.608 Y193.892 E33.74113
G1 X157.107 Y194.128 E33.75955
G1 X156.235 Y194.465 E33.79064
G1 X155.741 Y194.617 E33.80783
G1 X154.992 Y194.809 E33.83355
G1 X154.538 Y194.899 E33.84895
G1 X154.014 Y194.984 E33.8666
G1 X153.24 Y195.066 E33.89249
G1 X152.575 Y195.095 E33.91463
G1 X151.982 Y195.1 E33.93435
G1 X58.231 Y195.098 E37.05252
G1 X57.039 Y195.077 E37.09218
G1 X56.525 Y195.049 E37.1093
G1 X56.036 Y194.992 E37.12567
G1 X55.432 Y194.899 E37.146
G1 X54.9 Y194.795 E37.16403
G1 X54.476 Y194.682 E37.17862
G1 X53.976 Y194.531 E37.19599
G1 X53.089 Y194.212 E37.22734
G1 X52.248 Y193.824 E37.25815
G1 X51.769 Y193.561 E37.27632
G1 X51.09 Y193.143 E37.30284
G1 X50.412 Y192.657 E37.33059
G1 X49.812 Y192.161 E37.35648
G1 X49.468 Y191.842 E37.37209
G1 X49.07 Y191.445 E37.39078
G1 X48.468 Y190.754 E37.42126
G1 X47.916 Y189.999 E37.45237
G1 X47.474 Y189.295 E37.48002
G1 X47.108 Y188.608 E37.50591
G1 X46.872 Y188.107 E37.52433
G1 X46.535 Y187.235 E37.55542
G1 X46.383 Y186.741 E37.57261
G1 X46.191 Y185.992 E37.59833
G1 X46.101 Y185.538 E37.61372
G1 X46.016 Y185.014 E37.63138
G1 X45.935 Y184.25 E37.65693
G1 X45.903 Y183.513 E37.68147
G1 X45.9 Y183.107 E37.69497
G1 X45.901 Y114.232 E39.98577
G1 X45.92 Y113.098 E40.02349
G1 X45.945 Y112.603 E40.03997
G1 X46.007 Y112.043 E40.05871
G1 X46.101 Y111.431 E40.07931
G1 X46.206 Y110.893 E40.09754
G1 X46.319 Y110.471 E40.11207
G1 X46.47 Y109.972 E40.12941
G1 X46.621 Y109.53 E40.14494
G1 X46.802 Y109.056 E40.16182
G1 X47.184 Y108.231 E40.19206
G1 X47.439 Y107.767 E40.20967
G1 X47.856 Y107.091 E40.23608
G1 X48.339 Y106.417 E40.26366
G1 X48.833 Y105.818 E40.28949
G1 X49.145 Y105.481 E40.30476
G1 X49.53 Y105.093 E40.32294
G1 X50.227 Y104.483 E40.35375
G1 X50.991 Y103.924 E40.38523
G1 X51.705 Y103.474 E40.41331
G1 X52.392 Y103.108 E40.4392
G0 F3600 X52.563 Y103.47
G1 F1800 X53.064 Y103.234 E40.45761
G1 X53.883 Y102.917 E40.48682
G1 X54.377 Y102.765 E40.50401
G1 X55.1 Y102.581 E40.52883
G1 X55.526 Y102.496 E40.54328
G1 X56.05 Y102.411 E40.56093
G1 X56.781 Y102.333 E40.58538
G1 X57.429 Y102.305 E40.60696
G1 X57.96 Y102.3 E40.62462
G1 X151.657 Y102.3 E43.74099
G1 X152.895 Y102.32 E43.78217
G1 X153.37 Y102.344 E43.79799
G1 X153.901 Y102.403 E43.81576
G1 X154.51 Y102.497 E43.83626
G1 X155.01 Y102.595 E43.85321
G1 X155.408 Y102.701 E43.8669
G1 X155.908 Y102.852 E43.88428
G1 X156.328 Y102.995 E43.89903
G1 X156.802 Y103.176 E43.91591
G1 X157.58 Y103.537 E43.94443
G1 X158.045 Y103.793 E43.96209
G1 X158.693 Y104.193 E43.98742
G1 X159.341 Y104.658 E44.01395
G1 X159.92 Y105.136 E44.03892
G1 X160.249 Y105.44 E44.05382
G1 X160.646 Y105.836 E44.07247
G1 X161.211 Y106.485 E44.10109
G1 X161.742 Y107.21 E44.13098
G1 X162.172 Y107.893 E44.15782
G1 X162.528 Y108.559 E44.18294
G1 X162.763 Y109.057 E44.20125
G1 X163.081 Y109.875 E44.23044
G1 X163.234 Y110.371 E44.24771
G1 X163.42 Y111.104 E44.27286
G1 X163.504 Y111.524 E44.2871
G1 X163.589 Y112.047 E44.30473
G1 X163.665 Y112.757 E44.32848
G1 X163.696 Y113.433 E44.35098
G1 X163.7 Y113.801 E44.36323
G1 X163.699 Y182.731 E46.65585
G1 X163.68 Y183.892 E46.69447
G1 X163.656 Y184.37 E46.71038
G1 X163.597 Y184.901 E46.72815
G1 X163.503 Y185.51 E46.74865
G1 X163.405 Y186.01 E46.7656
G1 X163.299 Y186.408 E46.7793
G1 X163.148 Y186.908 E46.79667
G1 X163.005 Y187.328 E46.81142
G1 X162.824 Y187.802 E46.8283
G1 X162.466 Y188.576 E46.85666
G1 X162.211 Y189.04 E46.87427
G1 X161.808 Y189.692 E46.89977
G1 X161.34 Y190.344 E46.92646
G1 X160.864 Y190.92 E46.95131
G1 X160.56 Y191.249 E46.96621
G1 X160.164 Y191.646 E46.98486
G1 X159.515 Y192.211 E47.01348
G1 X158.79 Y192.742 E47.04337
G1 X158.099 Y193.177 E47.07053
G1 X157.437 Y193.53 E47.09548
G1 X156.936 Y193.766 E47.1139
G1 X156.117 Y194.083 E47.14311
G1 X155.623 Y194.235 E47.1603
G1 X154.9 Y194.419 E47.18512
G1 X154.474 Y194.504 E47.19956
G1 X153.95 Y194.589 E47.21722
G1 X153.219 Y194.667 E47.24167
G1 X152.571 Y194.695 E47.26324
G1 X151.982 Y194.7 E47.28283
G1 X58.238 Y194.698 E50.40077
G1 X57.046 Y194.677 E50.44042
G1 X56.096 Y194.597 E50.47213
G1 X55.492 Y194.504 E50.49246
G1 X54.99 Y194.405 E50.50948
G1 X54.592 Y194.299 E50.52318
G1 X54.092 Y194.148 E50.54055
G1 X53.23 Y193.838 E50.57102
G1 X52.44 Y193.474 E50.59995
G1 X51.961 Y193.211 E50.61812
G1 X51.307 Y192.807 E50.64369
G1 X50.651 Y192.336 E50.67055
G1 X50.073 Y191.858 E50.6955
G1 X49.75 Y191.559 E50.71014
G1 X49.352 Y191.162 E50.72883
G1 X48.787 Y190.513 E50.75745
G1 X48.251 Y189.78 E50.78766
G1 X47.823 Y189.099 E50.81441
G1 X47.47 Y188.437 E50.83936
G1 X47.234 Y187.936 E50.85778
G1 X46.917 Y187.117 E50.88699
G1 X46.765 Y186.623 E50.90418
G1 X46.581 Y185.9 E50.92899
G1 X46.496 Y185.474 E50.94344
G1 X46.411 Y184.95 E50.9611
G1 X46.334 Y184.23 E50.98518
G1 X46.303 Y183.51 E51.00915
G1 X46.3 Y183.104 E51.02265
G1 X46.301 Y114.239 E53.31311
G1 X46.32 Y113.105 E53.35084
G1 X46.344 Y112.63 E53.36666
G1 X46.402 Y112.104 E53.38426
G1 X46.496 Y111.492 E53.40485
G1 X46.595 Y110.986 E53.422
G1 X46.702 Y110.587 E53.43574
G1 X46.853 Y110.088 E53.45308
G1 X46.995 Y109.672 E53.4677
G1 X47.176 Y109.198 E53.48457
G1 X47.534 Y108.424 E53.51294
G1 X47.789 Y107.96 E53.53055
G1 X48.192 Y107.308 E53.55604
G1 X48.66 Y106.656 E53.58273
G1 X49.136 Y106.08 E53.60759
G1 X49.429 Y105.763 E53.62195
G1 X49.814 Y105.375 E53.64013
G1 X50.469 Y104.802 E53.66907
G1 X51.21 Y104.258 E53.69964
G1 X51.901 Y103.823 E53.7268
G1 X52.563 Y103.47 E53.75175
G1 F1500 E47.25175
;MESH:serial-module.stl
G0 F3600 X57.316 Y107.839
G0 X57.512 Y109.119
G0 X72 Y118.463
;TYPE:WALL-INNER
G1 F1500 E53.75175
G1 F1800 X72.627 Y118.502 E53.77265
G1 X73.247 Y118.411 E53.79349
