;FLAVOR:Marlin
;TIME:4729
;Filament used: 4.46193m
;Layer height: 0.2
;MINX:45.1
;MINY:71.51
;MINZ:0.2
;MAXX:164.9
;MAXY:225.49
;MAXZ:5
;Generated with Cura_SteamEngine 4.13.0
M82 ;absolute extrusion mode
; -- START GCODE --
M104 S220
G28 ; Zero-ing position
G29 ; Auto bed-leveling
G0 X4 Y297 Z15 F4000 ; Fast move to BQ's start position
G90 ; Set to Absolute Positioning
G92 E0 ; Reset extruder 0
G1 F1800 ; Set default feedrate
M109 S220 ; Makes sure the temperature is correct before printing
; -- end of START GCODE --
G92 E0
G92 E0
G1 F1500 E-6.5
;LAYER_COUNT:25
;LAYER:0
M107
G0 F3600 X50.552 Y73.664 Z0.2
;TYPE:SKIRT
G1 F1500 E0
G1 F1800 X50.874 Y73.453 E0.0128
G1 X51.314 Y73.186 E0.02992
G1 X51.589 Y73.032 E0.04041
G1 X52.052 Y72.795 E0.05771
G1 X52.553 Y72.559 E0.07612
G1 X53.53 Y72.18 E0.11098
G1 X54.024 Y72.028 E0.12817
G1 X54.825 Y71.822 E0.15568
G1 X55.334 Y71.721 E0.17294
G1 X55.858 Y71.636 E0.19059
G1 X56.38 Y71.571 E0.20809
G1 X57.101 Y71.525 E0.23212
G1 X57.417 Y71.515 E0.24263
G1 X58.018 Y71.51 E0.26262
G1 X151.783 Y71.512 E3.38126
G1 X152.975 Y71.533 E3.42091
G1 X153.537 Y71.564 E3.43963
G1 X154.086 Y71.627 E3.45801
G1 X154.69 Y71.72 E3.47834
G1 X155.228 Y71.824 E3.49656
G1 X155.755 Y71.962 E3.51468
G1 X156.255 Y72.113 E3.53206
G1 X156.756 Y72.284 E3.54966
G1 X157.23 Y72.465 E3.56654
G1 X158.159 Y72.895 E3.60059
G1 X158.624 Y73.151 E3.61824
G1 X159.07 Y73.418 E3.63553
G1 X159.742 Y73.871 E3.66249
G1 X160.057 Y74.105 E3.67554
G1 X160.478 Y74.442 E3.69347
G1 X160.704 Y74.637 E3.7034
G1 X161.096 Y75.001 E3.72119
G1 X161.493 Y75.397 E3.73984
G1 X162.168 Y76.171 E3.774
G1 X162.457 Y76.553 E3.78993
G1 X162.746 Y76.963 E3.80662
G1 X162.955 Y77.282 E3.8193
G1 X163.218 Y77.716 E3.83618
G1 X163.374 Y77.994 E3.84678
G1 X163.613 Y78.457 E3.86411
G1 X163.848 Y78.955 E3.88243
G1 X164.227 Y79.932 E3.91728
G1 X164.38 Y80.428 E3.93455
G1 X164.514 Y80.92 E3.95151
G1 X164.589 Y81.24 E3.96244
G1 X164.688 Y81.742 E3.97946
G1 X164.773 Y82.265 E3.99708
G1 X164.864 Y83.103 E4.02511
G1 X164.896 Y83.83 E4.04932
G1 X164.9 Y84.198 E4.06156
G1 X164.899 Y212.341 E8.32361
G1 X164.88 Y213.502 E8.36223
G1 X164.853 Y214.04 E8.38015
G1 X164.783 Y214.674 E8.40136
G1 X164.689 Y215.283 E8.42186
G1 X164.586 Y215.818 E8.43998
G1 X164.448 Y216.345 E8.4581
G1 X164.297 Y216.845 E8.47547
G1 X164.126 Y217.346 E8.49308
G1 X163.945 Y217.82 E8.50995
G1 X163.517 Y218.744 E8.54382
G1 X163.262 Y219.208 E8.56143
G1 X162.993 Y219.659 E8.5789
G1 X162.538 Y220.334 E8.60597
G1 X162.303 Y220.65 E8.61907
G1 X161.968 Y221.068 E8.63689
G1 X161.773 Y221.294 E8.64682
G1 X161.409 Y221.686 E8.66461
G1 X161.013 Y222.083 E8.68326
G1 X160.239 Y222.758 E8.71742
G1 X159.857 Y223.047 E8.73335
G1 X159.448 Y223.336 E8.75
G1 X159.126 Y223.547 E8.76281
G1 X158.686 Y223.814 E8.77993
G1 X158.411 Y223.968 E8.79041
G1 X157.948 Y224.205 E8.80771
G1 X157.447 Y224.441 E8.82613
G1 X156.47 Y224.82 E8.86098
G1 X155.976 Y224.972 E8.87817
G1 X155.175 Y225.178 E8.90568
G1 X154.666 Y225.279 E8.92294
G1 X154.142 Y225.364 E8.9406
G1 X153.62 Y225.429 E8.95809
G1 X152.899 Y225.475 E8.98212
G1 X152.583 Y225.485 E8.99264
G1 X151.982 Y225.49 E9.01263
G1 X58.217 Y225.488 E12.13127
G1 X57.025 Y225.467 E12.17092
G1 X56.463 Y225.436 E12.18964
G1 X55.914 Y225.373 E12.20802
G1 X55.31 Y225.28 E12.22834
G1 X54.772 Y225.176 E12.24657
G1 X54.245 Y225.038 E12.26469
G1 X53.745 Y224.887 E12.28206
G1 X53.266 Y224.724 E12.29889
G1 X52.806 Y224.55 E12.31525
G1 X51.862 Y224.116 E12.3498
G1 X51.383 Y223.853 E12.36798
G1 X50.93 Y223.582 E12.38554
G1 X50.255 Y223.127 E12.41261
G1 X49.935 Y222.889 E12.42588
G1 X49.51 Y222.548 E12.444
G1 X49.288 Y222.356 E12.45376
G1 X48.903 Y221.998 E12.47125
G1 X48.505 Y221.601 E12.48994
G1 X47.83 Y220.827 E12.5241
G1 X47.541 Y220.445 E12.54003
G1 X47.246 Y220.027 E12.55705
G1 X47.037 Y219.707 E12.56976
G1 X46.776 Y219.276 E12.58652
G1 X46.622 Y219.001 E12.597
G1 X46.385 Y218.538 E12.6143
G1 X46.149 Y218.037 E12.63272
G1 X45.77 Y217.06 E12.66758
G1 X45.618 Y216.566 E12.68477
G1 X45.412 Y215.765 E12.71228
G1 X45.311 Y215.256 E12.72954
G1 X45.226 Y214.732 E12.74719
G1 X45.136 Y213.881 E12.77565
G1 X45.103 Y213.109 E12.80135
G1 X45.1 Y212.703 E12.81486
G1 X45.101 Y84.629 E17.07462
G1 X45.12 Y83.495 E17.11234
G1 X45.147 Y82.96 E17.13016
G1 X45.216 Y82.332 E17.15117
G1 X45.31 Y81.72 E17.17176
G1 X45.428 Y81.116 E17.19223
G1 X45.553 Y80.65 E17.20828
G1 X45.704 Y80.151 E17.22562
G1 X45.874 Y79.654 E17.24309
G1 X46.055 Y79.18 E17.25996
G1 X46.483 Y78.256 E17.29383
G1 X46.738 Y77.792 E17.31144
G1 X47.007 Y77.341 E17.32891
G1 X47.462 Y76.666 E17.35598
G1 X47.697 Y76.35 E17.36908
G1 X48.032 Y75.932 E17.3869
G1 X48.227 Y75.706 E17.39683
G1 X48.577 Y75.328 E17.41396
G1 X48.962 Y74.94 E17.43214
G1 X49.744 Y74.255 E17.46672
G1 X50.137 Y73.957 E17.48312
G1 X50.552 Y73.664 E17.50002
G0 F3600 X50.771 Y73.999
G1 F1800 X51.51 Y73.535 E17.52904
G1 X52.222 Y73.156 E17.55587
G1 X52.723 Y72.92 E17.57429
G1 X53.647 Y72.563 E17.60723
G1 X54.141 Y72.411 E17.62443
G1 X54.917 Y72.212 E17.65107
G1 X55.398 Y72.116 E17.66738
G1 X55.922 Y72.031 E17.68504
G1 X56.419 Y71.969 E17.7017
G1 X57.122 Y71.925 E17.72513
G1 X57.421 Y71.915 E17.73508
G1 X58.018 Y71.91 E17.75493
G1 X151.776 Y71.912 E20.87334
G1 X152.968 Y71.933 E20.91299
G1 X153.506 Y71.962 E20.93091
G1 X154.025 Y72.023 E20.94829
G1 X154.629 Y72.116 E20.96862
G1 X155.138 Y72.213 E20.98585
G1 X155.64 Y72.345 E21.00311
G1 X156.14 Y72.496 E21.02049
G1 X156.613 Y72.658 E21.03712
G1 X157.087 Y72.839 E21.05399
G1 X157.966 Y73.246 E21.08621
G1 X158.431 Y73.502 E21.10386
G1 X159.127 Y73.931 E21.13106
G1 X159.818 Y74.426 E21.15933
G1 X160.217 Y74.745 E21.17632
G1 X160.443 Y74.94 E21.18625
G1 X160.814 Y75.284 E21.20307
G1 X161.211 Y75.68 E21.22172
G1 X161.849 Y76.413 E21.25405
G1 X162.411 Y77.182 E21.28572
G1 X162.87 Y77.911 E21.31438
G1 X163.252 Y78.628 E21.3414
G1 X163.487 Y79.126 E21.35971
G1 X163.845 Y80.05 E21.39267
G1 X163.998 Y80.546 E21.40994
G1 X164.199 Y81.332 E21.43692
G1 X164.293 Y81.806 E21.45299
G1 X164.378 Y82.329 E21.47062
G1 X164.464 Y83.125 E21.49724
G1 X164.496 Y83.834 E21.52085
G1 X164.5 Y84.202 E21.53309
G1 X164.499 Y212.335 E25.79481
G1 X164.48 Y213.496 E25.83343
G1 X164.454 Y214.013 E25.85065
G1 X164.388 Y214.613 E25.87072
G1 X164.294 Y215.222 E25.89122
G1 X164.197 Y215.728 E25.90836
G1 X164.065 Y216.23 E25.92562
G1 X163.914 Y216.73 E25.94299
G1 X163.752 Y217.203 E25.95962
G1 X163.571 Y217.677 E25.9765
G1 X163.167 Y218.551 E26.00852
G1 X162.912 Y219.015 E26.02613
G1 X162.48 Y219.716 E26.05352
G1 X161.982 Y220.411 E26.08196
G1 X161.665 Y220.807 E26.09883
G1 X161.47 Y221.033 E26.10876
G1 X161.126 Y221.404 E26.12558
G1 X160.73 Y221.801 E26.14423
G1 X159.997 Y222.439 E26.17655
G1 X159.229 Y223.001 E26.20821
G1 X158.49 Y223.465 E26.23723
G1 X157.778 Y223.844 E26.26406
G1 X157.277 Y224.08 E26.28248
G1 X156.353 Y224.437 E26.31542
G1 X155.859 Y224.589 E26.33261
G1 X155.083 Y224.788 E26.35926
G1 X154.602 Y224.884 E26.37557
G1 X154.078 Y224.969 E26.39323
G1 X153.581 Y225.031 E26.40989
G1 X152.878 Y225.075 E26.43331
G1 X152.579 Y225.085 E26.44326
G1 X151.982 Y225.09 E26.46312
G1 X58.224 Y225.088 E29.58153
G1 X57.032 Y225.067 E29.62118
G1 X56.494 Y225.038 E29.6391
G1 X55.975 Y224.977 E29.65648
G1 X55.371 Y224.884 E29.6768
G1 X54.862 Y224.787 E29.69404
G1 X54.36 Y224.655 E29.7113
G1 X53.86 Y224.504 E29.72867
G1 X52.947 Y224.176 E29.76094
G1 X52.055 Y223.765 E29.79361
G1 X51.576 Y223.502 E29.81178
G1 X50.873 Y223.069 E29.83924
G1 X50.174 Y222.568 E29.86785
G1 X49.772 Y222.246 E29.88498
G1 X49.185 Y221.715 E29.9113
G1 X48.787 Y221.318 E29.93
G1 X48.149 Y220.585 E29.96232
G1 X47.581 Y219.808 E29.99433
G1 X47.125 Y219.08 E30.02291
G1 X46.746 Y218.368 E30.04973
G1 X46.51 Y217.867 E30.06815
G1 X46.153 Y216.943 E30.1011
G1 X46.001 Y216.449 E30.11829
G1 X45.802 Y215.673 E30.14493
G1 X45.706 Y215.192 E30.16125
G1 X45.621 Y214.668 E30.1789
G1 X45.535 Y213.861 E30.2059
G1 X45.503 Y213.106 E30.23103
G1 X45.5 Y212.7 E30.24454
G1 X45.501 Y84.636 E34.50396
G1 X45.52 Y83.502 E34.54168
G1 X45.546 Y82.987 E34.55883
G1 X45.611 Y82.392 E34.57874
G1 X45.705 Y81.78 E34.59934
G1 X45.817 Y81.209 E34.61869
G1 X45.936 Y80.766 E34.63395
G1 X46.087 Y80.267 E34.65129
G1 X46.248 Y79.797 E34.66781
G1 X46.429 Y79.323 E34.68469
G1 X46.833 Y78.449 E34.71671
G1 X47.088 Y77.985 E34.73432
G1 X47.52 Y77.284 E34.76171
G1 X48.018 Y76.589 E34.79014
G1 X48.335 Y76.193 E34.80702
G1 X48.861 Y75.609 E34.83316
G1 X49.246 Y75.221 E34.85134
G1 X49.986 Y74.574 E34.88403
G1 X50.771 Y73.999 E34.91639
G0 F3600 X50.991 Y74.334
G1 F1800 X51.705 Y73.884 E34.94447
G1 X52.392 Y73.518 E34.97036
G1 X52.893 Y73.282 E34.98877
G1 X53.765 Y72.945 E35.01987
G1 X54.259 Y72.793 E35.03706
G1 X55.008 Y72.601 E35.06278
G1 X55.462 Y72.511 E35.07817
G1 X55.986 Y72.426 E35.09583
G1 X56.76 Y72.344 E35.12171
G1 X57.425 Y72.315 E35.14385
G1 X58.018 Y72.31 E35.16358
G1 X151.769 Y72.312 E38.28175
G1 X152.961 Y72.333 E38.3214
G1 X153.475 Y72.361 E38.33852
G1 X153.964 Y72.418 E38.3549
G1 X154.568 Y72.511 E38.37522
G1 X155.1 Y72.615 E38.39325
G1 X155.524 Y72.728 E38.40785
G1 X156.024 Y72.879 E38.42522
G1 X156.47 Y73.031 E38.44089
G1 X156.944 Y73.212 E38.45776
G1 X157.773 Y73.596 E38.48815
G1 X158.238 Y73.852 E38.50581
G1 X158.91 Y74.267 E38.53208
G1 X159.58 Y74.747 E38.55949
G1 X160.182 Y75.243 E38.58543
G1 X160.531 Y75.567 E38.60127
G1 X160.928 Y75.963 E38.61992
G1 X161.53 Y76.654 E38.6504
G1 X162.077 Y77.401 E38.6812
G1 X162.521 Y78.107 E38.70894
G1 X162.89 Y78.798 E38.73499
G1 X163.125 Y79.296 E38.75331
G1 X163.463 Y80.168 E38.78441
G1 X163.616 Y80.664 E38.80167
G1 X163.81 Y81.423 E38.82773
G1 X163.899 Y81.87 E38.84289
G1 X163.984 Y82.393 E38.86051
G1 X164.065 Y83.146 E38.8857
G1 X164.096 Y83.838 E38.90874
G1 X164.1 Y84.206 E38.92098
G1 X164.099 Y212.328 E43.18234
G1 X164.08 Y213.489 E43.22096
G1 X164.055 Y213.987 E43.23754
G1 X163.993 Y214.552 E43.25645
G1 X163.899 Y215.161 E43.27694
G1 X163.795 Y215.69 E43.29487
G1 X163.682 Y216.114 E43.30947
G1 X163.531 Y216.614 E43.32684
G1 X163.379 Y217.06 E43.34251
G1 X163.198 Y217.534 E43.35939
G1 X162.816 Y218.359 E43.38963
G1 X162.561 Y218.823 E43.40724
G1 X162.144 Y219.499 E43.43365
G1 X161.661 Y220.173 E43.46123
G1 X161.167 Y220.772 E43.48706
G1 X160.843 Y221.121 E43.50289
G1 X160.447 Y221.518 E43.52154
G1 X159.756 Y222.12 E43.55203
G1 X159.009 Y222.666 E43.5828
G1 X158.295 Y223.116 E43.61087
G1 X157.608 Y223.482 E43.63676
G1 X157.107 Y223.718 E43.65518
G1 X156.235 Y224.055 E43.68627
G1 X155.741 Y224.207 E43.70347
G1 X154.992 Y224.399 E43.72918
G1 X154.538 Y224.489 E43.74458
G1 X154.014 Y224.574 E43.76223
G1 X153.24 Y224.656 E43.78812
G1 X152.575 Y224.685 E43.81026
G1 X151.982 Y224.69 E43.82998
G1 X58.231 Y224.688 E46.94815
G1 X57.039 Y224.667 E46.98781
G1 X56.525 Y224.639 E47.00493
G1 X56.036 Y224.582 E47.0213
G1 X55.432 Y224.489 E47.04163
G1 X54.9 Y224.385 E47.05966
G1 X54.476 Y224.272 E47.07425
G1 X53.976 Y224.121 E47.09162
G1 X53.089 Y223.802 E47.12297
G1 X52.248 Y223.414 E47.15378
G1 X51.769 Y223.151 E47.17196
G1 X51.09 Y222.733 E47.19847
G1 X50.412 Y222.247 E47.22622
G1 X49.812 Y221.751 E47.25211
G1 X49.468 Y221.432 E47.26772
G1 X49.07 Y221.035 E47.28641
G1 X48.468 Y220.344 E47.31689
G1 X47.916 Y219.589 E47.348
G1 X47.474 Y218.885 E47.37565
G1 X47.108 Y218.198 E47.40154
G1 X46.872 Y217.697 E47.41996
G1 X46.535 Y216.825 E47.45105
G1 X46.383 Y216.331 E47.46824
G1 X46.191 Y215.582 E47.49396
G1 X46.101 Y215.128 E47.50935
G1 X46.016 Y214.604 E47.52701
G1 X45.935 Y213.84 E47.55256
G1 X45.903 Y213.103 E47.5771
G1 X45.9 Y212.697 E47.5906
G1 X45.901 Y84.642 E51.84973
G1 X45.92 Y83.508 E51.88745
G1 X45.945 Y83.013 E51.90394
G1 X46.007 Y82.453 E51.92268
G1 X46.101 Y81.841 E51.94327
G1 X46.206 Y81.303 E51.9615
G1 X46.319 Y80.881 E51.97603
G1 X46.47 Y80.382 E51.99337
G1 X46.621 Y79.94 E52.00891
G1 X46.802 Y79.466 E52.02578
G1 X47.184 Y78.641 E52.05602
G1 X47.439 Y78.177 E52.07363
G1 X47.856 Y77.501 E52.10005
G1 X48.339 Y76.827 E52.12763
G1 X48.833 Y76.228 E52.15345
G1 X49.145 Y75.891 E52.16873
G1 X49.53 Y75.503 E52.18691
G1 X50.227 Y74.893 E52.21771
G1 X50.991 Y74.334 E52.2492
G0 F3600 X51.21 Y74.668
G1 F1800 X51.901 Y74.233 E52.27636
G1 X52.563 Y73.88 E52.30131
G1 X53.064 Y73.644 E52.31973
G1 X53.883 Y73.327 E52.34894
G1 X54.377 Y73.175 E52.36613
G1 X55.1 Y72.991 E52.39094
G1 X55.526 Y72.906 E52.40539
G1 X56.05 Y72.821 E52.42305
G1 X56.781 Y72.743 E52.4475
G1 X57.429 Y72.715 E52.46907
G1 X58.018 Y72.71 E52.48866
G1 X151.762 Y72.712 E55.6066
G1 X152.954 Y72.733 E55.64625
G1 X153.904 Y72.813 E55.67796
G1 X154.508 Y72.906 E55.69829
G1 X155.01 Y73.005 E55.71531
G1 X155.408 Y73.111 E55.729
G1 X155.908 Y73.262 E55.74638
G1 X156.328 Y73.405 E55.76113
G1 X156.802 Y73.586 E55.77801
G1 X157.58 Y73.947 E55.80654
G1 X158.045 Y74.203 E55.82419
G1 X158.693 Y74.603 E55.84952
G1 X159.341 Y75.068 E55.87605
G1 X159.92 Y75.546 E55.90102
G1 X160.249 Y75.85 E55.91592
G1 X160.646 Y76.246 E55.93457
G1 X161.211 Y76.895 E55.96319
G1 X161.742 Y77.62 E55.99308
G1 X162.172 Y78.303 E56.01992
G1 X162.528 Y78.969 E56.04504
G1 X162.763 Y79.467 E56.06335
G1 X163.081 Y80.285 E56.09254
G1 X163.234 Y80.781 E56.10981
G1 X163.42 Y81.514 E56.13496
G1 X163.504 Y81.934 E56.1492
G1 X163.589 Y82.457 E56.16683
G1 X163.665 Y83.167 E56.19058
G1 X163.696 Y83.843 E56.21309
G1 X163.7 Y84.211 E56.22533
G1 X163.699 Y212.321 E60.48628
G1 X163.68 Y213.482 E60.5249
G1 X163.656 Y213.96 E60.54082
G1 X163.597 Y214.491 E60.55859
G1 X163.503 Y215.1 E60.57909
G1 X163.405 Y215.6 E60.59603
G1 X163.299 Y215.998 E60.60973
G1 X163.148 Y216.498 E60.6271
G1 X163.005 Y216.918 E60.64186
G1 X162.824 Y217.392 E60.65873
G1 X162.466 Y218.166 E60.6871
G1 X162.211 Y218.63 E60.70471
G1 X161.808 Y219.282 E60.7302
G1 X161.34 Y219.934 E60.7569
G1 X160.864 Y220.51 E60.78175
G1 X160.56 Y220.839 E60.79665
G1 X160.164 Y221.236 E60.8153
G1 X159.515 Y221.801 E60.84392
G1 X158.79 Y222.332 E60.87381
G1 X158.099 Y222.767 E60.90096
G1 X157.437 Y223.12 E60.92592
G1 X156.936 Y223.356 E60.94434
G1 X156.117 Y223.673 E60.97355
G1 X155.623 Y223.825 E60.99074
G1 X154.9 Y224.009 E61.01555
G1 X154.474 Y224.094 E61.03
G1 X153.95 Y224.179 E61.04765
G1 X153.219 Y224.257 E61.07211
G1 X152.571 Y224.285 E61.09368
G1 X151.982 Y224.29 E61.11327
G1 X58.238 Y224.288 E64.23121
G1 X57.046 Y224.267 E64.27086
G1 X56.096 Y224.187 E64.30257
G1 X55.492 Y224.094 E64.32289
G1 X54.99 Y223.995 E64.33991
G1 X54.592 Y223.889 E64.35361
G1 X54.092 Y223.738 E64.37098
G1 X53.23 Y223.428 E64.40145
G1 X52.44 Y223.064 E64.43038
G1 X51.961 Y222.801 E64.44856
G1 X51.307 Y222.397 E64.47413
G1 X50.651 Y221.926 E64.50099
G1 X50.073 Y221.448 E64.52593
G1 X49.75 Y221.149 E64.54057
G1 X49.352 Y220.752 E64.55927
G1 X48.787 Y220.103 E64.58789
G1 X48.251 Y219.37 E64.61809
G1 X47.823 Y218.689 E64.64484
G1 X47.47 Y218.027 E64.6698
G1 X47.234 Y217.526 E64.68821
G1 X46.917 Y216.707 E64.71742
G1 X46.765 Y216.213 E64.73461
G1 X46.581 Y215.49 E64.75943
G1 X46.496 Y215.064 E64.77388
G1 X46.411 Y214.54 E64.79153
G1 X46.334 Y213.82 E64.81562
G1 X46.303 Y213.1 E64.83959
G1 X46.3 Y212.694 E64.85309
G1 X46.301 Y84.649 E69.11188
G1 X46.32 Y83.515 E69.14961
G1 X46.344 Y83.04 E69.16543
G1 X46.402 Y82.514 E69.18303
G1 X46.496 Y81.902 E69.20362
G1 X46.595 Y81.396 E69.22077
G1 X46.702 Y80.997 E69.23451
G1 X46.853 Y80.498 E69.25185
G1 X46.995 Y80.082 E69.26647
G1 X47.176 Y79.608 E69.28334
G1 X47.534 Y78.834 E69.31171
G1 X47.789 Y78.37 E69.32932
G1 X48.192 Y77.718 E69.35481
G1 X48.66 Y77.066 E69.3815
G1 X49.136 Y76.49 E69.40636
G1 X49.429 Y76.173 E69.42072
G1 X49.814 Y75.785 E69.4389
G1 X50.469 Y75.212 E69.46784
G1 X51.21 Y74.668 E69.49841
G1 F1500 E62.99841
;MESH:bevestiging.stl
G0 F3600 X57.316 Y78.249
G0 X57.512 Y79.529
G0 X72 Y88.873
;TYPE:WALL-INNER
G1 F1500 E69.49841
G1 F1800 X72.627 Y88.912 E69.51931
G1 X73.247 Y88.821 E69.54015
G1 X73.836 Y88.601 E69.56106
G1 X74.363 Y88.266 E69.58183
G1 X74.801 Y87.843 E69.60209
G1 X75.153 Y87.321 E69.62303
G1 X75.389 Y86.738 E69.64394
G1 X75.497 Y86.12 E69.66481
G1 X75.475 Y85.492 E69.68571
G1 X75.323 Y84.882 E69.70662
G1 X75.048 Y84.316 E69.72755
G1 X74.648 Y83.81 E69.749
